X: 105104
Q:"Reel."
M: C
L: 1/8
K: Em
|: e2 |\
E2EF E2EF | DEFG AFDF |\
E2(EF) E2B2 | efe^d e2 :|\
e2ef g2fe | defg afdf |
e2ef g2fe | efe^d e2B2 |\
e2ef g2fe | defg afdf |\
g2ag f2gf | efe^d e2 |]\
"_Fine."{E}HE4 ||



